release/img/group.svg

<svg width="61" height="63" viewBox="0 0 61 63" fill="none" xmlns="http://www.w3.org/2000/svg">
<path d="M23.1751 30.1978C28.3788 29.9473 32.4922 25.6895 32.4512 20.5591L32.4103 20.5187C32.3262 15.057 27.9607 10.9204 22.4189 11.0012C17.2151 11.086 12.8497 15.5539 12.9747 20.7651C13.1017 26.348 17.8443 30.4442 23.1751 30.1978Z" fill="black"/>
<path d="M6.88966 52H38.6203C39.2249 52 39.7188 51.8142 40.0447 51.4789C40.3521 51.1638 40.5099 50.7194 40.469 50.1781C40.3849 48.9379 40.3009 47.6533 40.0058 46.4131C37.739 36.94 28.5469 31.2723 18.9347 33.2599C10.96 34.9121 5 42.1108 5 50.1377C5 51.3375 5.67224 52 6.88966 52Z" fill="black"/>
<path d="M43.658 47.2008C42.8198 42.3169 40.594 38.1398 36.8167 34.7909C37.5996 34.3102 38.4174 33.9345 39.27 33.6477C39.7434 33.4901 40.2271 33.3609 40.721 33.2599C47.4783 31.9752 53.8994 35.9059 55.621 42.4825C55.8731 43.4762 55.9572 44.5508 55.9982 45.585C56.0412 46.4979 55.328 47.2816 54.4036 47.2816H43.742L43.6969 47.2736L43.617 47.2412L43.658 47.2008Z" fill="black"/>
<path d="M36.0195 23.8676C36.0195 27.8386 39.2085 31.0259 43.2399 31.0259L43.1969 31.0663C47.2262 31.0663 50.4583 27.9234 50.4583 23.9928C50.4583 22.074 49.7307 20.349 48.5379 19.0684C47.2303 17.6626 45.3653 16.7941 43.2809 16.7941C39.2515 16.7941 36.0195 19.937 36.0195 23.8676Z" fill="black"/>
</svg>

<svg xmlns="http://www.w3.org/2000/svg" width="61" height="63" fill="none" viewBox="0 0 61 63">
  <path fill="#000" d="M23.175 30.198c5.204-.25 9.317-4.509 9.276-9.639l-.04-.04c-.085-5.462-4.45-9.599-9.992-9.518-5.204.085-9.57 4.553-9.444 9.764.127 5.583 4.87 9.68 10.2 9.433ZM6.89 52h31.73c.605 0 1.099-.186 1.425-.521.307-.315.465-.76.424-1.3-.084-1.241-.168-2.526-.463-3.766-2.267-9.473-11.46-15.14-21.071-13.153C10.96 34.912 5 42.11 5 50.138 5 51.338 5.672 52 6.89 52Zm36.768-4.8c-.838-4.883-3.064-9.06-6.841-12.41a11.938 11.938 0 0 1 3.904-1.53c6.757-1.285 13.178 2.646 14.9 9.223.252.993.336 2.068.377 3.102.043.913-.67 1.697-1.594 1.697H43.742l-.045-.008-.08-.033.041-.04ZM36.02 23.868c0 3.97 3.188 7.158 7.22 7.158l-.043.04c4.03 0 7.261-3.143 7.261-7.073a7.182 7.182 0 0 0-1.92-4.925 7.138 7.138 0 0 0-5.257-2.274c-4.03 0-7.261 3.143-7.261 7.074Z"/>
</svg>
